X:1
T:Hartshead Hornpipe
S:Richard Morgan
Z:robin.beech@mcgill.ca
M:3/2
L:1/8
K:Ador
A2AB e2ef g2g2 | A2e2 efge d2B2 | A2AB e2ef g2g2| d2B2 G2d2 BcdB :|
|:c2AA e2A2 c3A | a3f g2d2 BcdB | c2AA e2A2 c2c2 | d2G2 G2d2 BcdB :|

